cy/image-outline-badged.svg

<svg viewBox="0 0 36 36" xmlns="http://www.w3.org/2000/svg" height="1em" width="1em">
  <path d="M11.93 11a3 3 0 1 0-3 3 3 3 0 0 0 3-3Zm-4.6 0a1.6 1.6 0 1 1 1.6 1.6 1.6 1.6 0 0 1-1.6-1.6Z" class="clr-i-outline--badged clr-i-outline-path-1--badged"/>
  <path d="m17.38 20.77-4-4a1 1 0 0 0-1.41 0L5.92 22.9v2.83l6.79-6.79L16 22.18l-3.75 3.75H15l8.45-8.45L30 24v-2.82l-5.81-5.81a1 1 0 0 0-1.41 0Z" class="clr-i-outline--badged clr-i-outline-path-2--badged"/>
  <path d="M32 13.22V30H4V6h18.5a7.49 7.49 0 0 1 .28-2H4a2 2 0 0 0-2 2v24a2 2 0 0 0 2 2h28a2 2 0 0 0 2-2V12.34a7.45 7.45 0 0 1-2 .88Z" class="clr-i-outline--badged clr-i-outline-path-3--badged"/>
  <circle cx="30" cy="6" r="5" class="clr-i-outline--badged clr-i-outline-path-4--badged clr-i-badge"/>
  <path fill="none" d="M0 0h36v36H0z"/>
</svg>

<svg version="1.1" viewBox="0 0 36 36" preserveAspectRatio="xMidYMid meet" xmlns="http://www.w3.org/2000/svg" height="1em" width="1em">
  <path d="M11.93,11a3,3,0,1,0-3,3A3,3,0,0,0,11.93,11Zm-4.6,0a1.6,1.6,0,1,1,1.6,1.6A1.6,1.6,0,0,1,7.33,11Z" class="clr-i-outline--badged clr-i-outline-path-1--badged"/>
  <path d="M17.38,20.77l-4-4a1,1,0,0,0-1.41,0L5.92,22.9v2.83l6.79-6.79L16,22.18l-3.75,3.75H15l8.45-8.45L30,24V21.18l-5.81-5.81a1,1,0,0,0-1.41,0Z" class="clr-i-outline--badged clr-i-outline-path-2--badged"/>
  <path d="M32,13.22V30H4V6H22.5a7.49,7.49,0,0,1,.28-2H4A2,2,0,0,0,2,6V30a2,2,0,0,0,2,2H32a2,2,0,0,0,2-2V12.34A7.45,7.45,0,0,1,32,13.22Z" class="clr-i-outline--badged clr-i-outline-path-3--badged"/>
  <circle cx="30" cy="6" r="5" class="clr-i-outline--badged clr-i-outline-path-4--badged clr-i-badge"/>
  <rect x="0" y="0" width="36" height="36" fill-opacity="0"/>
</svg>
